X:1
T:Title
L:1/8
M:6/8
K:D
V:1 treble nm="Grand Piano"
V:1
 z3 z2[Q:1/4=100] D | D2 D F2 F | E3- E2 E | E2 E G2 G | F3- F2 F | F2 F A2 F | G2 A B2 A | %7
 G2 F E2 D | C3- C2 D | D2 D F2 F | E3- E2 E | E2 E G2 G | F3- F2 F | F2 F A2 F | G2 A B2 B | %15
 A2 A G2 C | D6 | AF>G AF>A | dcB AGF | GE>F GE>G | cBA GFE | FD>E FD>F | BAF AGE | F3 G3 | A6 | %25
 AF>G AF>A | dcB AGF | GE>F GE>G | cBA GFE | FD>E FD>F | BAF AGE | F3 E3 | D6 |] %33

